img/header/header-icon.svg

<svg width="126" height="126" viewBox="0 0 126 126" fill="none" xmlns="http://www.w3.org/2000/svg">
<g filter="url(#filter0_d_1_156)">
<rect x="38.36" y="20.36" width="48.96" height="48.96" rx="12.24" fill="#20B486"/>
<g clip-path="url(#clip0_1_156)">
<path d="M75.2713 50.2586H74.1876V49.3023H75.2713C76.0363 49.3023 76.6738 48.6648 76.6738 47.8998V41.2061C76.6738 39.9948 75.6538 38.9748 74.4426 38.9748H67.4301C66.2188 38.9748 65.1988 39.9948 65.1988 41.2061V47.8998C65.1988 48.6648 65.8363 49.3023 66.6013 49.3023H67.6851V50.2586H66.6013C65.2626 50.2586 64.2426 49.1748 64.2426 47.8998V41.2061C64.2426 39.4211 65.6451 38.0186 67.4301 38.0186H74.5063C76.2913 38.0186 77.6938 39.4211 77.6938 41.2061V47.8998C77.6938 49.2386 76.6101 50.2586 75.2713 50.2586ZM70.9363 36.9986C69.0238 36.9986 67.4301 35.4048 67.4301 33.4923C67.4301 31.5798 69.0238 29.9861 70.9363 29.9861C72.8488 29.9861 74.4426 31.5798 74.4426 33.4923C74.4426 35.4048 72.9126 36.9986 70.9363 36.9986ZM70.9363 31.0061C69.5338 31.0061 68.3863 32.1536 68.3863 33.5561C68.3863 34.9586 69.5338 36.1061 70.9363 36.1061C72.3388 36.1061 73.4863 34.9586 73.4863 33.5561C73.4863 32.1536 72.3388 31.0061 70.9363 31.0061Z" fill="#F5F5F4"/>
<path d="M72.5937 59.6935C71.9562 59.6935 71.3825 59.3748 71 58.9285C70.6175 59.3748 70.0437 59.6935 69.4062 59.6935C68.2587 59.6935 67.3025 58.7373 67.3025 57.5898V42.0348H68.2587V57.5898C68.2587 58.2273 68.7687 58.7373 69.4062 58.7373C70.0437 58.7373 70.49 58.1635 70.49 57.5898V49.8123H71.4462V57.5898C71.4462 58.2273 71.9562 58.7373 72.5937 58.7373C73.2312 58.7373 73.7412 58.2273 73.7412 57.5898V42.0348H74.6975V57.5898C74.6975 58.7373 73.7412 59.6935 72.5937 59.6935Z" fill="#F5F5F4"/>
<path d="M65.7088 53.0636H48.05V33.0461H66.0275V34.0024H49.0063V52.1074H65.7088V53.0636Z" fill="#F5F5F4"/>
<path d="M62.585 41.9712H51.62V42.9274H62.585V41.9712Z" fill="#F5F5F4"/>
<path d="M62.585 45.2224H51.62V46.1787H62.585V45.2224Z" fill="#F5F5F4"/>
<path d="M62.585 48.5374H51.62V49.4936H62.585V48.5374Z" fill="#F5F5F4"/>
</g>
</g>
<defs>
<filter id="filter0_d_1_156" x="0.109985" y="0.469986" width="125.46" height="125.46" filterUnits="userSpaceOnUse" color-interpolation-filters="sRGB">
<feFlood flood-opacity="0" result="BackgroundImageFix"/>
<feColorMatrix in="SourceAlpha" type="matrix" values="0 0 0 0 0 0 0 0 0 0 0 0 0 0 0 0 0 0 127 0" result="hardAlpha"/>
<feOffset dy="18.36"/>
<feGaussianBlur stdDeviation="19.125"/>
<feComposite in2="hardAlpha" operator="out"/>
<feColorMatrix type="matrix" values="0 0 0 0 0.0509804 0 0 0 0 0.0470588 0 0 0 0 0.219608 0 0 0 0.15 0"/>
<feBlend mode="normal" in2="BackgroundImageFix" result="effect1_dropShadow_1_156"/>
<feBlend mode="normal" in="SourceGraphic" in2="effect1_dropShadow_1_156" result="shape"/>
</filter>
<clipPath id="clip0_1_156">
<rect width="30.6" height="30.6" fill="white" transform="translate(47.54 29.5399)"/>
</clipPath>
</defs>
</svg>

<svg width="126" height="126" fill="none" xmlns="http://www.w3.org/2000/svg"><g filter="url(#filter0_d_1_156)"><rect x="38.36" y="20.36" width="48.96" height="48.96" rx="12.24" fill="#20B486"/><g clip-path="url(#clip0_1_156)" fill="#F5F5F4"><path d="M75.271 50.259h-1.083v-.957h1.083c.765 0 1.403-.637 1.403-1.402v-6.694c0-1.211-1.02-2.231-2.231-2.231H67.43c-1.211 0-2.231 1.02-2.231 2.231V47.9c0 .765.637 1.402 1.402 1.402h1.084v.957h-1.084a2.353 2.353 0 01-2.358-2.36v-6.693a3.157 3.157 0 013.187-3.187h7.076a3.157 3.157 0 013.188 3.187V47.9c0 1.339-1.084 2.359-2.423 2.359zm-4.335-13.26c-1.912 0-3.506-1.594-3.506-3.507 0-1.912 1.594-3.506 3.506-3.506 1.913 0 3.507 1.594 3.507 3.506A3.496 3.496 0 0170.936 37zm0-5.993a2.557 2.557 0 00-2.55 2.55 2.557 2.557 0 002.55 2.55 2.557 2.557 0 002.55-2.55 2.557 2.557 0 00-2.55-2.55z"/><path d="M72.594 59.694c-.638 0-1.212-.32-1.594-.766-.382.447-.956.766-1.594.766a2.122 2.122 0 01-2.104-2.104V42.035h.957V57.59c0 .637.51 1.147 1.147 1.147.638 0 1.084-.574 1.084-1.147v-7.778h.956v7.778c0 .637.51 1.147 1.148 1.147.637 0 1.147-.51 1.147-1.147V42.035h.957V57.59a2.122 2.122 0 01-2.104 2.103zm-6.885-6.63H48.05V33.046h17.978v.956H49.006v18.105H65.71v.957z"/><path d="M62.585 41.971H51.62v.956h10.965v-.956zm0 3.251H51.62v.957h10.965v-.957zm0 3.315H51.62v.957h10.965v-.957z"/></g></g><defs><clipPath id="clip0_1_156"><path fill="#fff" transform="translate(47.54 29.54)" d="M0 0h30.6v30.6H0z"/></clipPath><filter id="filter0_d_1_156" x=".11" y=".47" width="125.46" height="125.46" filterUnits="userSpaceOnUse" color-interpolation-filters="sRGB"><feFlood flood-opacity="0" result="BackgroundImageFix"/><feColorMatrix in="SourceAlpha" values="0 0 0 0 0 0 0 0 0 0 0 0 0 0 0 0 0 0 127 0" result="hardAlpha"/><feOffset dy="18.36"/><feGaussianBlur stdDeviation="19.125"/><feComposite in2="hardAlpha" operator="out"/><feColorMatrix values="0 0 0 0 0.0509804 0 0 0 0 0.0470588 0 0 0 0 0.219608 0 0 0 0.15 0"/><feBlend in2="BackgroundImageFix" result="effect1_dropShadow_1_156"/><feBlend in="SourceGraphic" in2="effect1_dropShadow_1_156" result="shape"/></filter></defs></svg>
